resources/svg/direction-line.svg

<svg fill="currentColor" viewBox="0 0 24 24" xmlns="http://www.w3.org/2000/svg"><path d="M12.0001 3.5148L3.5148 12.0001L12.0001 20.4854L20.4854 12.0001L12.0001 3.5148ZM12.7072 1.39348L22.6067 11.293C22.9972 11.6835 22.9972 12.3167 22.6067 12.7072L12.7072 22.6067C12.3167 22.9972 11.6835 22.9972 11.293 22.6067L1.39348 12.7072C1.00295 12.3167 1.00295 11.6835 1.39348 11.293L11.293 1.39348C11.6835 1.00295 12.3167 1.00295 12.7072 1.39348ZM13.0001 10.0001V7.50008L16.5001 11.0001L13.0001 14.5001V12.0001H10.0001V15.0001H8.00008V11.0001C8.00008 10.4478 8.4478 10.0001 9.00008 10.0001H13.0001Z"/></svg>

<svg xmlns="http://www.w3.org/2000/svg" viewBox="0 0 24 24" fill="currentColor">
    <g>
        <path fill="none" d="M0 0h24v24H0z"/>
        <path d="M12 3.515L3.515 12 12 20.485 20.485 12 12 3.515zm.707-2.122l9.9 9.9a1 1 0 0 1 0 1.414l-9.9 9.9a1 1 0 0 1-1.414 0l-9.9-9.9a1 1 0 0 1 0-1.414l9.9-9.9a1 1 0 0 1 1.414 0zM13 10V7.5l3.5 3.5-3.5 3.5V12h-3v3H8v-4a1 1 0 0 1 1-1h4z"/>
    </g>
</svg>
